source/icons/email.svg

<svg width="32" height="32" viewBox="0 0 32 32" fill="none" xmlns="http://www.w3.org/2000/svg">
<path d="M23.875 9H8.125C7.82663 9 7.54048 9.12292 7.3295 9.34171C7.11853 9.5605 7 9.85725 7 10.1667V21.8333C7 22.1428 7.11853 22.4395 7.3295 22.6583C7.54048 22.8771 7.82663 23 8.125 23H23.875C24.1734 23 24.4595 22.8771 24.6705 22.6583C24.8815 22.4395 25 22.1428 25 21.8333V10.1667C25 9.85725 24.8815 9.5605 24.6705 9.34171C24.4595 9.12292 24.1734 9 23.875 9ZM23.0087 21.8333H9.05875L12.9963 17.61L12.1863 16.7992L8.125 21.1567V11.0533L15.1169 18.2692C15.3277 18.4865 15.6128 18.6084 15.91 18.6084C16.2072 18.6084 16.4923 18.4865 16.7031 18.2692L23.875 10.8725V21.0808L19.735 16.7875L18.9419 17.61L23.0087 21.8333ZM8.86187 10.1667H22.9637L15.91 17.4408L8.86187 10.1667Z" fill="black"/>
</svg>

<svg width="32" height="32" viewBox="0 0 32 32" fill="none" xmlns="http://www.w3.org/2000/svg"><path d="M23.88 9h-15.75c-.3 0-.59.12-.8.34a1.2 1.2 0 0 0-.33.83v11.66c0 .31.12.61.33.83.21.22.5.34.8.34h15.74c.3 0 .59-.12.8-.34.21-.22.33-.52.33-.83v-11.66c0-.31-.12-.61-.33-.83a1.1 1.1 0 0 0-.8-.34Zm-.87 12.83h-13.95l3.94-4.22-.81-.81-4.06 4.36v-10.1l6.99 7.2a1.1 1.1 0 0 0 1.58 0l7.18-7.39v10.21l-4.14-4.3-.8.83 4.07 4.22Zm-14.15-11.66h14.1l-7.05 7.27-7.05-7.27Z" fill="#000"/></svg>
